X: 1
T: String Quartet in E\b Major opus 71 no 3 mvt 2
C: Franz Joseph Haydn
%%abc-version 2.0
%%abcx-abcm2ps-target-version 5.9.1 (29 Sep 2008)
%%abc-creator hum2abc beta
%%abcx-conversion-date 2021/02/14 14:38:20
%%abc-copyright Copyright (c) 1994, 2000 Center for Computer Assisted Research in the Humanities
%%abc-edited-by Frances Bennion
%%abcx-initial-encoding-date 1997/04/15
%%gracespace 0 6 6
%%humdrum-veritas 3652302404
%%humdrum-veritas-data 3889703357
%%linebreak <none>
%%barnumbers 0
L: 1/16
M: 2/4
N: Derived from op71n3-02.krn
Q: "Andante con moto"
%%staves [1 2 3 4]
V: 1
V: 2
V: 3 clef=alto
V: 4 clef=bass
K: Bb
[V:1]z6 F2 [I:setbarnb1]|
[V:2]z6 z2 |
[V:3]z6 z2 |
[V:4]z6 z2 |
[V:1]B2d2 c2A2 |
[V:2]F8- |
[V:3]D4 E4 |
[V:4]B,8- |
[V:1]B2dB F2B3/d/ |
[V:2]F4 z4 |
[V:3]D4 z4 |
[V:4]B,4 z4 |
[V:1]f2d2 g2=e2 |
[V:2]F4 =E4 |
[V:3]D4 ^C4 |
[V:4]B,8- |
[V:1]f6 F2 |
[V:2]F4 z4 |
[V:3]D4 z4 |
[V:4]B,4 z4 |
[V:1]B2d2 c2A2 |
[V:2]F4 E4 |
[V:3]D4 A,2C2 |
[V:4]B,4 ^F,4 |
[V:1]B2dB G2B2 |
[V:2]D6 G2 |
[V:3]B,6 C2 |
[V:4]G,6 =E,2 |
[V:1]A2G2 F2=E2 |
[V:2]F2D2 D2^C2 |
[V:3]C2D2 A,2A,2 |
[V:4]F,2B,,2 A,,2A,,2 |
[V:1]D6 F3/=B/ |
[V:2]D6 z2 |
[V:3]D,4 z4 |
[V:4]D,2A,,2 D,,2z2 |
[V:1]d2=B2 e2c2 |
[V:2]F2D2 ^F4 |
[V:3]=B,2D2 C2E2 |
[V:4]G,8- |
[V:1]=B2dB G2g2 |
[V:2]G4 D4 |
[V:3]D4 =B,4 |
[V:4]G,8- |
[V:1]^f2a2 d2f2 |
[V:2]E4 C4 |
[V:3]C4 A,4 |
[V:4]G,8- |
[V:1]g6 f2 |
[V:2]D4 =B4 |
[V:3]=B,2D2 G,2D2 |
[V:4]G,8 |
[V:1]=e2g2 c2_e2 |
[V:2]B6 A2 |
[V:3]G2=E2 z2C2 |
[V:4]C,4 F,4 |
[V:1]d2f2 B2e2 |
[V:2]_A6 G2 |
[V:3]F2D2 z2B,2 |
[V:4]B,,4 E,4- |
[V:1]d2c2 B2c3/A/ |
[V:2]F2E2 D2E2 |
[V:3]=B,2C2 F2A,3/C/ |
[V:4]E,4 F,2F,2 |
[V:1]B6 z2 |
[V:2]D6 z2 |
[V:3]B,6 F,2 |
[V:4]B,2F,2 B,,2z2 |
[V:1]z4 e4 |
[V:2]z4 _G4 |
[V:3]B,2_D2 C2A,2 |
[V:4]B,,8- |
[V:1]_d2c>A B2z2 |
[V:2]F2_G2 F2z2 |
[V:3]B,2E,2 _D,2F,2 |
[V:4]B,,4 z4 |
[V:1]z4 _g4 |
[V:2]B,2_D2 C2A,2 |
[V:3]_D2F2 E2C2 |
[V:4]B,,8- |
[V:1]f2a2 b2c'2 |
[V:2]B,2C2 _D2C2 |
[V:3]_D2E2 F4- |
[V:4]B,,4 z2A,,2 |
[V:1]_d'2b2 g2=e2 |
[V:2]B,2_d4 d2 |
[V:3]F4 G4 |
[V:4]B,,4 B,4 |
[V:1]f2c'2 _a2f2 |
[V:2]c4 z4 |
[V:3]F4 _A4 |
[V:4]_A,8 |
[V:1]g2bz =e2gz |
[V:2]_d4 B4 |
[V:3]G6 =E2 |
[V:4]B,4 C4 |
[V:1]f6 _df |
[V:2]_A4 z4 |
[V:3]F4 z4 |
[V:4]z2F,2 F,,2z2 |
[V:1]_a2f2 b2g2 |
[V:2]_A4 G4 |
[V:3]F4 =E4 |
[V:4]_D,8- |
[V:1]_a2f2 _d2_Ac |
[V:2]_A4 z4 |
[V:3]F4 z4 |
[V:4]D,4 z4 |
[V:1]e2c2 f2d2 |
[V:2]E4 D4 |
[V:3]C4 =B,4 |
[V:4]_A,8- |
[V:1]e2c2 _A2Bc |
[V:2]E8 |
[V:3]C8 |
[V:4]A,6 _G,2 |
[V:1]_d2f2 _a2f=d |
[V:2]_D4 =D4 |
[V:3]_A,4 _C2A,2 |
[V:4]F,8 |
[V:1]e2_g2 b2=g=e |
[V:2]B,4 =E4 |
[V:3]_G,4 _D4- |
[V:4]_G,4 =G,4 |
[V:1]_a2f_d _g2ec |
[V:2]F4 _G4 |
[V:3]D4 C2E2 |
[V:4]_A,6 _A,,2 |
[V:1]_d4 z4 |
[V:2]F4 z4 |
[V:3]_D4 z2F,2 |
[V:4]_D,2F,2 E,2C,2 |
[V:1]z4 e4 |
[V:2]z4 _G4 |
[V:3]B,2_D2 C2A,2 |
[V:4]B,,8- |
[V:1]_d2c>A B2z2 |
[V:2]F2_G2 F2z2 |
[V:3]B,2E,2 _D,2F,2 |
[V:4]B,,4 z4 |
[V:1]z4 _g4 |
[V:2]B,2_D2 C2A,2 |
[V:3]_D2F2 E2C2 |
[V:4]B,,8- |
[V:1]f2a2 b2_a2 |
[V:2]B,4 f4- |
[V:3]_D2E2 F2B,2 |
[V:4]B,,2C,2 _D,2=D,2 |
[V:1]_g8 |
[V:2]f4 e4- |
[V:3]E2_GE c2B2 |
[V:4]E,4 z4 |
[V:1]f8 |
[V:2]e4 _dedc |
[V:3]A2FA B4 |
[V:4]z6 B,,2 |
[V:1]=e4 f4 |
[V:2]B4 A4 |
[V:3]_D2B,2 C4 |
[V:4]_G,2B,G, F,2F,,2 |
[V:1]B6 F2 |
[V:2]B4 z4 |
[V:3]B,4 z4 |
[V:4]B,,2F,2 B,2z2 |
[V:1]B2d2 c2A2 |
[V:2]F8- |
[V:3]D4 E4 |
[V:4]B,8- |
[V:1]B2dB F2B3/d/ |
[V:2]F4 z4 |
[V:3]D4 z4 |
[V:4]B,4 z4 |
[V:1]f2d2 g2=e2 |
[V:2]F4 =E4 |
[V:3]D4 ^C4 |
[V:4]B,8- |
[V:1]f6 F2 |
[V:2]F6 z2 |
[V:3]D4 z4 |
[V:4]B,4 z4 |
[V:1]B2d2 c2A2 |
[V:2]F4 E4 |
[V:3]D4 A,2C2 |
[V:4]B,4 ^F,4 |
[V:1]B2dB G2B2 |
[V:2]D6 G2 |
[V:3]B,6 C2 |
[V:4]G,6 =E,2 |
[V:1]A2G2 F2=E2 |
[V:2]F2D2 D2^C2 |
[V:3]C2D2 A,2A,2 |
[V:4]F,2B,,2 A,,2A,,2 |
[V:1]D6 F3/=B/ |
[V:2]D4 z4 |
[V:3]D,4 z4 |
[V:4]D,2A,,2 D,,2z2 |
[V:1]d2=B2 e2c2 |
[V:2]F2D2 ^F4 |
[V:3]=B,2D2 C2E2 |
[V:4]G,8- |
[V:1]=B2dB G2g2 |
[V:2]G4 D4 |
[V:3]D4 =B,4 |
[V:4]G,8- |
[V:1]^f2a2 d2f2 |
[V:2]E4 C4 |
[V:3]C4 A,4 |
[V:4]G,8- |
[V:1]g6 f2 |
[V:2]D4 =B4 |
[V:3]=B,2D2 G,2D2 |
[V:4]G,8 |
[V:1]=e2g2 c2_e2 |
[V:2]B6 A2 |
[V:3]G2=E2 z2C2 |
[V:4]C,4 F,4 |
[V:1]d2f2 B2e2 |
[V:2]_A6 G2 |
[V:3]F2D2 z2B,2 |
[V:4]B,,4 E,4- |
[V:1]d2c2 B2c3/A/ |
[V:2]F2E2 D2E2 |
[V:3]=B,2C2 F2A,3/C/ |
[V:4]E,4 F,2F,2 |
[V:1]B6 f2 |
[V:2]D6 z2 |
[V:3]B,6 z2 |
[V:4]B,2F,2 B,,2z2 |
[V:1](3bfe(3dcB (3AGF(3EDC |
[V:2]F2z2 [E2A2]z2 |
[V:3]D2z2 C2z2 |
[V:4]B,,2z2 F,2z2 |
[V:1](3B,DE(3FED (3BFB(3dBd |
[V:2][B4D4] z4 |
[V:3]D4 z4 |
[V:4]B,2z6 |
[V:1](3fab(3fab (3gab(3gab |
[V:2]F4 =E4 |
[V:3]D4 ^C4 |
[V:4]B,8- |
[V:1](3fgf(3edc (3Bde(3fga |
[V:2]F4 z4 |
[V:3]D4 z4 |
[V:4]B,4 z4 |
[V:1](3bfe(3dcB (3AG^F(3EDC |
[V:2]D2z2 E2z2 |
[V:3]B,2z2 C2z2 |
[V:4]B,,2z2 ^F,2z2 |
[V:1](3B,DG(3Bdg (3bab(3d'c'b |
[V:2]D4 z2G2 |
[V:3]B,4 z2=E2 |
[V:4]G,4 z2=E,2 |
[V:1](3abc'(3bag (3fga(3gf=e |
[V:2]A2D2 F2^C2 |
[V:3]F2G2 D2=E2 |
[V:4]F,2B,2 A,2A,,2 |
[V:1](3dAG(3FGA D2F2 |
[V:2]D4 z4 |
[V:3]F4 z4 |
[V:4]D,4 z4 |
[V:1](3d=Bg(3fdB (3cA^f(3ecA |
[V:2]F4 ^F4 |
[V:3]=B,2D2 E4 |
[V:4]G,8- |
[V:1](3=Bcd(3cBA (3GBd(3g^fg |
[V:2]G4 D4 |
[V:3]D4 =B,4 |
[V:4]G,8- |
[V:1](3^fga(3fga (3d=ef(3def |
[V:2]E4 C4 |
[V:3]C4 A,4 |
[V:4]G,8- |
[V:1](3ga^f(3gaf (3g=Bc(3d=e=f |
[V:2]D4 =B4 |
[V:3]=B,4 D4 |
[V:4]G,8 |
[V:1](3=ega(3bge (3cde(3fc_e |
[V:2]B6 A2 |
[V:3]G2=E2 z2C2 |
[V:4]C,4 F,4 |
[V:1](3dfg(3_afd (3Bcd(3eBg |
[V:2]_A6 G2 |
[V:3]F2D2 z2B,2- |
[V:4]B,,4 E,4 |
[V:1](3fdb(3gec (3dfB(3ecA |
[V:2]z2G2 F2[E2A2C2] |
[V:3]B,2B,4 (3A,CE |
[V:4]D,2E,2 F,2F,2 |
[V:1](3BFE(3DEF B,2z2 |
[V:2][B,4D4B4] z4 |
[V:3]D4 z4 |
[V:4]B,,4 z2F,,2 |
[V:1]z8 |
[V:2]z2B,2 >A,2CE |
[V:3]_D,2F,2 E,2C,2 |
[V:4]B,,2_D,2 C,2A,,2 |
[V:1]z6 B,2 |
[V:2]_D4 z2F2- |
[V:3]_D,4 z4 |
[V:4]B,,2_D,B,, F,,B,,C,D, |
[V:1]_G8- |
[V:2]F4 E4- |
[V:3]B,8 |
[V:4]E,_G,B,_A, G,F,E,_D, |
[V:1]GF_G_A B2G2 |
[V:2]E6 E2- |
[V:3]_A,8- |
[V:4]C,2E,C, _A,,2C,2 |
[V:1]F4 _G4 |
[V:2]E2_D4 C2 |
[V:3]A,4 z4 |
[V:4]_D,2_A,,D, E,2A,,E, |
[V:1]_A6 _G2- |
[V:2]_C4 B,2E2- |
[V:3]_D4 _G,2B,2 |
[V:4]F,2_A,,F, _G,F,E,_D, |
[V:1]G2F2 E4 |
[V:2]E2_D4 C2 |
[V:3]_A,4 B,2A,_G, |
[V:4]C,_A,,_D,F,, _G,,E,,A,,A,, |
[V:1]_D4 z4 |
[V:2]_D4 z2_A,2 |
[V:3]F,4 z4 |
[V:4]_D,,2F,,_A,, _D,2z2 |
[V:1]z6 _A,2 |
[V:2]_D2F2 E2C2 |
[V:3]z8 |
[V:4]z_D,,E,,F,, _G,,B,,_A,,G,, |
[V:1]F2_A2 _G2E2 |
[V:2]_D6 C2 |
[V:3]z8 |
[V:4]F,,_A,,_D,F, E,B,_A,_G, |
[V:1]F2_G2 _A4 |
[V:2]_D2E2 F2E2 |
[V:3]z8 |
[V:4]F,_G,F,E, _D,E,D,_C, |
[V:1]_A2_c2 B2A2 |
[V:2]D8 |
[V:3]F,4 _G,2_A,2 |
[V:4]B,,_C,B,,_A,, _G,,A,,G,,F,, |
[V:1]_G_AGF E_DCB, |
[V:2]E2B,4 B,2 |
[V:3]B,4 z4 |
[V:4]E,,D,,E,,F,, _G,,F,,E,,=E,, |
[V:1]F4 =EBGE |
[V:2]A,E_DC D4 |
[V:3]A,CB,A, B,4 |
[V:4]F,,8- |
[V:1]F4 =EBGE |
[V:2]CE_DC D4 |
[V:3]A,CB,A, B,4 |
[V:4]F,,8 |
[V:1](3:2:2F4-F/_G=G A|
[V:2]CDED E4 |
[V:3]A,=B,CB, C4 |
[V:4]F,8 |
[V:1]B2d2 c2A2 |
[V:2]DFDF EFEF |
[V:3]B,2B,2 B,2B,2 |
[V:4]B,,4 z4 |
[V:1]B2dB FBdf |
[V:2]DFDF DDFB |
[V:3]B,2B,2 B,2B,2 |
[V:4]z8 |
[V:1]bd'f'd' g'e'b'g' |
[V:2]dfdf egee' |
[V:3]BBBB BBBB |
[V:4]z8 |
[V:1]f'g'f'e' d'f'e'd' |
[V:2]d'e'd'c' bd'c'b |
[V:3]BBBB B2e=e |
[V:4]z8 |
[V:1]c'd'c'd' c'f'e'd' |
[V:2]abab ad'c'b |
[V:3]f=efe fB_e=e |
[V:4]z8 |
[V:1]c'd'c'd' c'e'd'c' |
[V:2]abab ac'ba |
[V:3]fefe fAcf |
[V:4]z8 |
[V:1]d'c'bd' c'abg |
[V:2]bagb afg=e |
[V:3]BcdB cdBc |
[V:4]z8 |
[V:1]fac'a fedc |
[V:2]fAcA FBAG |
[V:3]FAcA FGFE |
[V:4]z8 |
[V:1]B2d2 c2A2 |
[V:2]FDFD _GEGE |
[V:3]DFDF E_GEG |
[V:4]B,,2B,,2 B,,2B,,2 |
[V:1]B2dB FBdf |
[V:2]FDFD FDFB |
[V:3]DFDF DB,B,B, |
[V:4]B,,4 z4 |
[V:1]bd'f'd' g'e'b'g' |
[V:2]dfdf egee' |
[V:3]BBBB BBBB |
[V:4]z8 |
[V:1]f'g'f'e' d'f'e'd' |
[V:2]d'e'd'c' bd'c'b |
[V:3]BBBB B2e=e |
[V:4]z8 |
[V:1]c'd'c'd' c'f'e'd' |
[V:2]abab ad'c'b |
[V:3]f=efe fB_e=e |
[V:4]z8 |
[V:1]c'd'c'd' c'e'd'c' |
[V:2]abab ac'ba |
[V:3]f=efe fAcf |
[V:4]z8 |
[V:1]d'c'bd' c'abg |
[V:2]bagb afg=e |
[V:3]BcdB cdBc |
[V:4]z8 |
[V:1]fac'a fgab |
[V:2]fcAc f=efg |
[V:3]FAcA F2z2 |
[V:4]z8 |
[V:1]c'd'c'd' c'e'd'c' |
[V:2]abab ac'ba |
[V:3]f=efe fAcf |
[V:4]z8 |
[V:1]d'e'd'e' d'f'e'd' |
[V:2]bc'bc' bd'c'b |
[V:3]BFBF BBcd |
[V:4]z8 |
[V:1]c'=bc'b c'_bab |
[V:2]g_aga gfed |
[V:3]efef edcB |
[V:4]z8 |
[V:1]agfg fedc |
[V:2]cBAB AcBA |
[V:3]F4 z4 |
[V:4]z8 |
[V:1]B2d2 c2A2 |
[V:2]BDFD _GEGE |
[V:3]DFDF E_GEG |
[V:4]B,,2B,,2 B,,2B,,2 |
[V:1]B2dB F2Bd |
[V:2]FDFD F2z2 |
[V:3]DFDF D2z2 |
[V:4]B,,4 z4 |
[V:1]f2d2 g2=e2 |
[V:2]F4 =E4 |
[V:3]D4 ^C4 |
[V:4]B,8- |
[V:1]f4 z4 |
[V:2]F4 z4 |
[V:3]D2z4 B,D |
[V:4]B,4 z4 |
[V:1]z2d'4 c'b |
[V:2]z2b4 ag |
[V:3]F2D2 G2=E2 |
[V:4]z8 |
[V:1]a2g2 f2z2 |
[V:2]f2=e2 f2z2 |
[V:3]F2B2 A2z2 |
[V:4]z6 A,,C, |
[V:1]z2g4 fe |
[V:2]z2e4 dc |
[V:3]z8 |
[V:4]E,2C,2 A,2F,2 |
[V:1]d2c2 B2A2 |
[V:2]B2E2 D2F2 |
[V:3]F6 B,2 |
[V:4]B,2C2 D2D,2 |
[V:1]G>AB>c B2A2 |
[V:2]G4 F2C2 |
[V:3]B,>C_D>D =D2E2 |
[V:4]E,2=E,2 F,2F,2 |
[V:1]B4 z4 |
[V:2]D4 z4 |
[V:3]D4 z4 |
[V:4]B,,4 z4 |
[V:1]z6 FA |
[V:2]z8 |
[V:3]z8 |
[V:4]z8 |
[V:1]c2A2 d2=B2 |
[V:2]C4 =B,4 |
[V:3]A,4 ^G,4 |
[V:4]F,8- |
[V:1]c2A2 F2z2 |
[V:2]C4 z4 |
[V:3]A,4 z4 |
[V:4]F,4 z4 |
[V:1]z6 Bd |
[V:2]z8 |
[V:3]z8 |
[V:4]C,2A,,2 F,,2z2 |
[V:1]f2d2 g2=e2 |
[V:2]F4 =E4 |
[V:3]D4 ^C4 |
[V:4]B,8- |
[V:1]f2d2 B2z2 |
[V:2]F4 z4 |
[V:3]D4 z4 |
[V:4]B,4 z4 |
[V:1]z8 |
[V:2]z8 |
[V:3]z6 B,D |
[V:4]F,2D,2 B,,2z2 |
[V:1]z2d'4 c'b |
[V:2]z2b4 ag |
[V:3]F2D2 G2=E2 |
[V:4]z8 |
[V:1]a2g2 f2z2 |
[V:2]f2=e2 f2z2 |
[V:3]F2B2 A2z2 |
[V:4]z6 A,,C, |
[V:1]z2g4 fe |
[V:2]z2e4 dc |
[V:3]z8 |
[V:4]E,2C,2 A,2F,2 |
[V:1]d2c2 B2A2 |
[V:2]B2E2 D2F2 |
[V:3]F6 B,2 |
[V:4]B,2C2 D2D,2 |
[V:1]G>AB>c B2A2 |
[V:2]G4 F2C2 |
[V:3]B,>C_D>D =D2E2 |
[V:4]E,2=E,2 F,2F,2 |
[V:1]B2z2 g>=eg3/e/ |
[V:2]D2z2 =E2E2 |
[V:3]D2z2 ^C2C2 |
[V:4]B,,2B,,2 B,,2B,,2 |
[V:1]f2z2 E>CE3/C/ |
[V:2]F2z2 C>A,C3/A,/ |
[V:3]D2z2 _G,2G,2 |
[V:4]B,,2B,,2 B,,2B,,2 |
[V:1]D2z2 g>=eg3/e/ |
[V:2]B,2z2 =E2E2 |
[V:3]F,2z2 ^C2C2 |
[V:4]B,,2B,,2 B,,2B,,2 |
[V:1]f2z2 E>CE3/C/ |
[V:2]F2z2 C>A,C3/A,/ |
[V:3]D2z2 _G,2G,2 |
[V:4]B,,2B,,2 B,,2B,,2 |
[V:1]D2z2 [b2B2D2]z2 |
[V:2]B,2z2 [B2D2]z2 |
[V:3]F,2z2 [B,2F,2D2]z2 |
[V:4]B,,2z2 B,,2z2 |
[V:1][B,4D4] z4 |]
[V:2][D4B4] z4 |]
[V:3][B,4D4F,4] z4 |]
[V:4]B,,4 z4 |]

